X: 1
T: Dublin Streets
M: 9/8
L: 1/8
R: slip jig
K: Emin
G2A BGE BGE | F2G AFD AFD | G2A BGE BGE | dcB AGF E3 :|
e2f g2a bge |d2e f2g afd | e2f g2a bge | dcB AGF E3 |
e2f g2a bge | ded d2f afd | gbg faf ege | dcB AGF E3 ||
